svg/u1f53d.svg

<svg viewBox="0 0 128 128" xmlns="http://www.w3.org/2000/svg">
  <g>
    <path d="M116,4H12c-4.42,0-8,3.58-8,8v104c0,4.42,3.58,8,8,8h104c4.42,0,8-3.58,8-8V12 C124,7.58,120.42,4,116,4z" fill="#F77E00"/>
    <path d="M109.7,4H11.5C7.37,4.03,4.03,7.37,4,11.5v97.9c-0.01,4.14,3.34,7.49,7.48,7.5c0.01,0,0.01,0,0.02,0 h98.1c4.14,0.01,7.49-3.34,7.5-7.48c0-0.01,0-0.01,0-0.02V11.5c0.09-4.05-3.13-7.41-7.18-7.5C109.85,4,109.77,4,109.7,4z" fill="#FF9800"/>
    <path d="M39.7,12.9c0-2.3-1.6-3-10.8-2.7c-7.7,0.3-11.5,1.2-13.8,4 s-2.9,8.5-3,15.3c0,4.8,0,9.3,2.5,9.3c3.4,0,3.4-7.9,6.2-12.3C26.2,17.8,39.7,15.9,39.7,12.9z" opacity="0.75" fill="#FFBD52" enable-background="new "/>
    <g opacity="0.2">
      <path d="M93.5,39.7c1.46-0.01,2.66,1.17,2.67,2.63c0,0.48-0.12,0.96-0.37,1.37l-29.3,51 c-0.76,1.27-2.41,1.68-3.68,0.92c-0.38-0.23-0.7-0.54-0.92-0.92l-29.3-51c-0.73-1.29-0.28-2.92,1.01-3.65 c0.39-0.22,0.84-0.34,1.29-0.35L93.5,39.7" fill="#424242"/>
    </g>
    <path d="M64.2,39.7H34.8c-1.48,0.02-2.67,1.23-2.65,2.71c0.01,0.45,0.12,0.89,0.35,1.29l29.3,51 c0.7,1.27,2.31,1.73,3.58,1.02c0.43-0.24,0.79-0.59,1.02-1.02l29.3-51c0.73-1.29,0.28-2.92-1.01-3.65 c-0.39-0.22-0.84-0.34-1.29-0.35L64.2,39.7z" fill="#FAFAFA"/>
  </g>
</svg>

<svg viewBox="0 0 128 128" xmlns="http://www.w3.org/2000/svg">
  <defs/>
  <path d="M116,4 L12,4 C7.58,4 4,7.58 4,12 L4,116 C4,120.42 7.58,124 12,124 L116,124 C120.42,124 124,120.42 124,116 L124,12 C124,7.58 120.42,4 116,4 Z" fill="#F77E00"/>
  <path d="M109.7,4 L11.5,4 C7.37,4.03 4.03,7.37 4,11.5 L4,109.4 C3.99,113.54 7.34,116.89 11.48,116.9 C11.49,116.9 11.49,116.9 11.5,116.9 L109.6,116.9 C113.74,116.91 117.09,113.56 117.1,109.42 C117.1,109.41 117.1,109.41 117.1,109.4 L117.1,11.5 C117.19,7.45 113.97,4.09 109.92,4 C109.85,4 109.77,4 109.7,4 Z" fill="#FF9800"/>
  <path d="M39.7,12.9 C39.7,10.6 38.1,9.9 28.9,10.2 C21.2,10.5 17.4,11.4 15.1,14.2 C12.8,17 12.2,22.7 12.1,29.5 C12.1,34.3 12.1,38.8 14.6,38.8 C18,38.8 18,30.9 20.8,26.5 C26.2,17.8 39.7,15.9 39.7,12.9 Z" fill="#FFBD52" opacity="0.75"/>
  <path d="M93.5,39.7 C94.96,39.69 96.16,40.87 96.17,42.33 C96.17,42.81 96.05,43.29 95.8,43.7 L66.5,94.7 C65.74,95.97 64.09,96.38 62.82,95.62 C62.44,95.39 62.12,95.08 61.9,94.7 L32.6,43.7 C31.87,42.41 32.32,40.78 33.61,40.05 C34,39.83 34.45,39.71 34.9,39.7 L93.5,39.7" fill="#424242" opacity="0.2"/>
  <path d="M64.2,39.7 L34.8,39.7 C33.32,39.72 32.13,40.93 32.15,42.41 C32.16,42.86 32.27,43.3 32.5,43.7 L61.8,94.7 C62.5,95.97 64.11,96.43 65.38,95.72 C65.81,95.48 66.17,95.13 66.4,94.7 L95.7,43.7 C96.43,42.41 95.98,40.78 94.69,40.05 C94.3,39.83 93.85,39.71 93.4,39.7 L64.2,39.7 Z" fill="#FAFAFA"/>
</svg>
